src/images/GeneFit/D2C2.svg

<svg fill="none" height="100" viewBox="0 0 100 100" width="100" xmlns="http://www.w3.org/2000/svg"><g fill="#ec8539"><path d="m63.3333 100h-10c-1.7676-.0018-3.4623-.729-4.7121-2.0219-1.2499-1.293-1.9528-3.0461-1.9546-4.8746v-17.2414h6.6667v17.2414h10v-17.2414h6.6666v-13.7931c-.0009-.9143-.3523-1.7909-.9773-2.4373-.6249-.6465-1.4722-1.0101-2.356-1.011h-29.0667l-6.6666-20.6897h-20.93331c-.88379.0009-1.73112.3645-2.35605 1.011s-.9764 1.523-.97728 2.4373v20.6897h6.66664v31.0345h13.3333v-24.138h6.6667v24.138c-.0018 1.8285-.7047 3.5816-1.9546 4.8746-1.2498 1.2929-2.9445 2.0201-4.7121 2.0219h-13.3333c-1.7676-.0018-3.46222-.729-4.71207-2.0219-1.24986-1.293-1.95281-3.0461-1.95457-4.8746v-24.138c-1.76757-.0018-3.46223-.729-4.71209-2.0219-1.24986-1.293-1.95280508-3.0461-1.95457-4.8746v-20.6897c.00264738-2.7428 1.05706-5.3725 2.93185-7.3119 1.87479-1.9395 4.41679-3.0302 7.06814-3.033h20.93331c1.399-.0009 2.7628.454 3.8978 1.3001s1.9837 2.0405 2.4255 3.4137l5.1433 15.9759h24.2667c2.6513.0028 5.1933 1.0935 7.0681 3.033 1.8748 1.9394 2.9292 4.5691 2.9319 7.3119v13.7931c-.0018 1.8285-.7047 3.5816-1.9546 4.8746-1.2499 1.2929-2.9445 2.0201-4.7121 2.022v10.3448c-.0018 1.8285-.7047 3.5816-1.9546 4.8746-1.2498 1.2929-2.9445 2.0201-4.712 2.0219z"/><path d="m90.0001 100h-6.6667v-37.931h10v-20.6897c-.0009-.9143-.3524-1.7908-.9773-2.4373s-1.4723-1.0101-2.356-1.011h-13.3334v-6.8966h13.3334c2.6513.0028 5.1933 1.0935 7.0681 3.033 1.8748 1.9394 2.9292 4.5691 2.9318 7.3119v20.6897c-.0017 1.8285-.7047 3.5816-1.9545 4.8746-1.2499 1.2929-2.9445 2.0201-4.7121 2.0219h-3.3333z"/><path d="m20.0001 27.5863c-2.6371 0-5.215-.809-7.4076-2.3246-2.1927-1.5156-3.90164-3.6698-4.91081-6.1902-1.00916-2.5203-1.27321-5.2937-.75874-7.9693.51447-2.67558 1.78434-5.13328 3.64905-7.06228 1.8647-1.929 4.2405-3.242672 6.8269-3.774883s5.2673-.2590607 7.7036.784913c2.4364 1.04396 4.5187 2.81186 5.9838 5.08013s2.2471 4.93502 2.2471 7.66302c-.0044 3.6568-1.4106 7.1625-3.9101 9.7482-2.4996 2.5857-5.8884 4.0404-9.4232 4.045zm0-20.68973c-1.3186 0-2.6075.40448-3.7038 1.16228-1.0964.75781-1.9508 1.8349-2.4554 3.09505-.5046 1.2602-.6366 2.6469-.3794 3.9847s.8922 2.5666 1.8245 3.5311c.9324.9645 2.1203 1.6214 3.4135 1.8875s2.6336.1295 3.8518-.3925 2.2594-1.4059 2.9919-2.54c.7325-1.1342 1.1235-2.4676 1.1235-3.8316-.0017-1.8285-.7047-3.5816-1.9545-4.87456-1.2499-1.29296-2.9446-2.02014-4.7121-2.02197z"/><path d="m79.9998 27.5863c-2.6371 0-5.2149-.809-7.4076-2.3246-2.1926-1.5156-3.9016-3.6698-4.9108-6.1902-1.0091-2.5203-1.2732-5.2937-.7587-7.9693.5145-2.67558 1.7844-5.13328 3.649-7.06228 1.8647-1.929 4.2405-3.242672 6.8269-3.774883s5.2673-.2590607 7.7037.784913c2.4363 1.04396 4.5187 2.81186 5.9838 5.08013 1.465 2.26827 2.247 4.93502 2.247 7.66302-.0044 3.6568-1.4106 7.1625-3.9101 9.7482s-5.8883 4.0404-9.4232 4.045zm0-20.68973c-1.3185 0-2.6075.40448-3.7038 1.16228-1.0963.75781-1.9508 1.8349-2.4554 3.09505-.5045 1.2602-.6366 2.6469-.3793 3.9847.2572 1.3378.8921 2.5666 1.8245 3.5311.9323.9645 2.1202 1.6214 3.4134 1.8875s2.6337.1295 3.8518-.3925c1.2182-.522 2.2594-1.4059 2.9919-2.54.7326-1.1342 1.1236-2.4676 1.1236-3.8316-.0018-1.8285-.7047-3.5816-1.9546-4.87456-1.2498-1.29296-2.9445-2.02014-4.7121-2.02197z"/><path d="m58.3334 48.2759c-2.3074 0-4.5631-.7078-6.4816-2.034-1.9186-1.3261-3.414-3.2111-4.297-5.4164s-1.114-4.632-.6639-6.9731c.4502-2.3412 1.5613-4.4917 3.1929-6.1795 1.6316-1.6879 3.7104-2.8374 5.9736-3.3031 2.2631-.4656 4.6088-.2266 6.7406.6868 2.1318.9135 3.9539 2.4604 5.2359 4.4452 1.2819 1.9847 1.9662 4.3181 1.9662 6.7051-.0036 3.1998-1.2339 6.2675-3.421 8.5301-2.1872 2.2625-5.1526 3.5353-8.2457 3.5389zm0-17.2414c-.9889 0-1.9556.3034-2.7778.8717-.8223.5684-1.4631 1.3762-1.8416 2.3213-.3784.9452-.4774 1.9852-.2845 2.9885.1929 1.0034.6691 1.925 1.3684 2.6484.6992.7234 1.5902 1.216 2.5601 1.4156.9699.1995 1.9752.0971 2.8888-.2944s1.6945-1.0544 2.2439-1.905c.5495-.8506.8427-1.8507.8427-2.8737-.0018-1.3712-.5291-2.6858-1.4664-3.6554s-2.2081-1.5152-3.5336-1.517z"/></g></svg>

<svg width="100" height="100" viewBox="0 0 100 100" fill="none" xmlns="http://www.w3.org/2000/svg">
<path d="M63.3333 100H53.3333C51.5657 99.9982 49.871 99.271 48.6212 97.9781C47.3713 96.6851 46.6684 94.932 46.6666 93.1035V75.8621H53.3333V93.1035H63.3333V75.8621H69.9999V62.069C69.999 61.1547 69.6476 60.2781 69.0226 59.6317C68.3977 58.9852 67.5504 58.6216 66.6666 58.6207H37.5999L30.9333 37.931H9.99999C9.1162 37.9319 8.26887 38.2955 7.64394 38.942C7.01901 39.5885 6.66754 40.465 6.66666 41.3793V62.069H13.3333V93.1035H26.6666V68.9655H33.3333V93.1035C33.3315 94.932 32.6286 96.6851 31.3787 97.9781C30.1289 99.271 28.4342 99.9982 26.6666 100H13.3333C11.5657 99.9982 9.87108 99.271 8.62123 97.9781C7.37137 96.6851 6.66842 94.932 6.66666 93.1035V68.9655C4.89909 68.9637 3.20443 68.2365 1.95457 66.9436C0.70471 65.6506 0.00176492 63.8975 0 62.069V41.3793C0.00264738 38.6365 1.05706 36.0068 2.93185 34.0674C4.80664 32.1279 7.34864 31.0372 9.99999 31.0344H30.9333C32.3323 31.0335 33.6961 31.4884 34.8311 32.3345C35.9661 33.1806 36.8148 34.375 37.2566 35.7482L42.3999 51.7241H66.6666C69.3179 51.7269 71.8599 52.8176 73.7347 54.7571C75.6095 56.6965 76.6639 59.3262 76.6666 62.069V75.8621C76.6648 77.6906 75.9619 79.4437 74.712 80.7367C73.4621 82.0296 71.7675 82.7568 69.9999 82.7587V93.1035C69.9981 94.932 69.2952 96.6851 68.0453 97.9781C66.7955 99.271 65.1008 99.9982 63.3333 100Z" fill="#EC8539"/>
<path d="M90.0001 100H83.3334V62.069H93.3334V41.3793C93.3325 40.465 92.981 39.5885 92.3561 38.942C91.7312 38.2955 90.8838 37.9319 90.0001 37.931H76.6667V31.0344H90.0001C92.6514 31.0372 95.1934 32.1279 97.0682 34.0674C98.943 36.0068 99.9974 38.6365 100 41.3793V62.069C99.9983 63.8975 99.2953 65.6506 98.0455 66.9436C96.7956 68.2365 95.101 68.9637 93.3334 68.9655H90.0001V100Z" fill="#EC8539"/>
<path d="M20.0001 27.5863C17.363 27.5863 14.7851 26.7773 12.5925 25.2617C10.3998 23.7461 8.69086 21.5919 7.68169 19.0715C6.67253 16.5512 6.40848 13.7778 6.92295 11.1022C7.43742 8.42662 8.70729 5.96892 10.572 4.03992C12.4367 2.11092 14.8125 0.797248 17.3989 0.265037C19.9853 -0.267174 22.6662 0.0059763 25.1025 1.04995C27.5389 2.09391 29.6212 3.86181 31.0863 6.13008C32.5514 8.39835 33.3334 11.0651 33.3334 13.7931C33.329 17.4499 31.9228 20.9556 29.4233 23.5413C26.9237 26.127 23.5349 27.5817 20.0001 27.5863V27.5863ZM20.0001 6.89657C18.6815 6.89657 17.3926 7.30105 16.2963 8.05885C15.1999 8.81666 14.3455 9.89375 13.8409 11.1539C13.3363 12.4141 13.2043 13.8008 13.4615 15.1386C13.7187 16.4764 14.3537 17.7052 15.286 18.6697C16.2184 19.6342 17.4063 20.2911 18.6995 20.5572C19.9927 20.8233 21.3331 20.6867 22.5513 20.1647C23.7695 19.6427 24.8107 18.7588 25.5432 17.6247C26.2757 16.4905 26.6667 15.1571 26.6667 13.7931C26.665 11.9646 25.962 10.2115 24.7122 8.91854C23.4623 7.62558 21.7676 6.8984 20.0001 6.89657V6.89657Z" fill="#EC8539"/>
<path d="M79.9998 27.5863C77.3627 27.5863 74.7849 26.7773 72.5922 25.2617C70.3996 23.7461 68.6906 21.5919 67.6814 19.0715C66.6723 16.5512 66.4082 13.7778 66.9227 11.1022C67.4372 8.42662 68.7071 5.96892 70.5717 4.03992C72.4364 2.11092 74.8122 0.797248 77.3986 0.265037C79.985 -0.267174 82.6659 0.0059763 85.1023 1.04995C87.5386 2.09391 89.621 3.86181 91.0861 6.13008C92.5511 8.39835 93.3331 11.0651 93.3331 13.7931C93.3287 17.4499 91.9225 20.9556 89.423 23.5413C86.9235 26.127 83.5347 27.5817 79.9998 27.5863V27.5863ZM79.9998 6.89657C78.6813 6.89657 77.3923 7.30105 76.296 8.05885C75.1997 8.81666 74.3452 9.89375 73.8406 11.1539C73.3361 12.4141 73.204 13.8008 73.4613 15.1386C73.7185 16.4764 74.3534 17.7052 75.2858 18.6697C76.2181 19.6342 77.406 20.2911 78.6992 20.5572C79.9924 20.8233 81.3329 20.6867 82.551 20.1647C83.7692 19.6427 84.8104 18.7588 85.5429 17.6247C86.2755 16.4905 86.6665 15.1571 86.6665 13.7931C86.6647 11.9646 85.9618 10.2115 84.7119 8.91854C83.4621 7.62558 81.7674 6.8984 79.9998 6.89657V6.89657Z" fill="#EC8539"/>
<path d="M58.3334 48.2759C56.026 48.2759 53.7703 47.5681 51.8518 46.2419C49.9332 44.9158 48.4378 43.0308 47.5548 40.8255C46.6718 38.6202 46.4408 36.1935 46.8909 33.8524C47.3411 31.5112 48.4522 29.3607 50.0838 27.6729C51.7154 25.985 53.7942 24.8355 56.0574 24.3698C58.3205 23.9042 60.6662 24.1432 62.798 25.0566C64.9298 25.9701 66.7519 27.517 68.0339 29.5018C69.3158 31.4865 70.0001 33.8199 70.0001 36.2069C69.9965 39.4067 68.7662 42.4744 66.5791 44.737C64.3919 46.9995 61.4265 48.2723 58.3334 48.2759V48.2759ZM58.3334 31.0345C57.3445 31.0345 56.3778 31.3379 55.5556 31.9062C54.7333 32.4746 54.0925 33.2824 53.714 34.2275C53.3356 35.1727 53.2366 36.2127 53.4295 37.216C53.6224 38.2194 54.0986 39.141 54.7979 39.8644C55.4971 40.5878 56.3881 41.0804 57.358 41.28C58.3279 41.4795 59.3332 41.3771 60.2468 40.9856C61.1604 40.5941 61.9413 39.9312 62.4907 39.0806C63.0402 38.23 63.3334 37.2299 63.3334 36.2069C63.3316 34.8357 62.8043 33.5211 61.867 32.5515C60.9297 31.5819 59.6589 31.0363 58.3334 31.0345V31.0345Z" fill="#EC8539"/>
</svg>
